X: 373
M: 2/2
L: 1/8
K: G
!segno!D2G2 |\
dBAG F2!+!E2 | D4 !segno!y|]| "1 F"BAGF |\
E2B2 G2B2 | B2A2 AGFE |
^D2F2 F2A2 | A2G2 A2c2 |\

